X:138
T:Slide Dubh
R:slide
C:Peadar \'O Riada
Z:id:hn-slide-138
M:6/8
L:1/8
K:D
f2d e2d | Bcd A2d | B2d A2d | B2A A2d |
f2d e2d | Bcd A2B | d2e fef |1 d3 d2e :|2 d3 d2A ||
|: d2e fef | a2f afe | d2e fed | B2d A2B |
d2e fef | a2f afe | d2e fef |1 d3 d2A :|2 d3 d2e || 

